SVG_Azure_All/Azure Token.svg

<?xml version="1.0" encoding="UTF-8" standalone="no"?>
<!-- Generated by Microsoft Visio, SVG Export Azure Token.svg Page-1 -->

<svg
   xmlns:dc="http://purl.org/dc/elements/1.1/"
   xmlns:cc="http://creativecommons.org/ns#"
   xmlns:rdf="http://www.w3.org/1999/02/22-rdf-syntax-ns#"
   xmlns:svg="http://www.w3.org/2000/svg"
   xmlns="http://www.w3.org/2000/svg"
   xmlns:sodipodi="http://sodipodi.sourceforge.net/DTD/sodipodi-0.dtd"
   xmlns:inkscape="http://www.inkscape.org/namespaces/inkscape"
   width="0.64094949in"
   height="0.78741193in"
   viewBox="0 0 46.148337 56.693799"
   xml:space="preserve"
   class="st6"
   version="1.1"
   id="svg56"
   sodipodi:docname="Azure Token.svg"
   style="font-size:12px;overflow:visible;color-interpolation-filters:sRGB;fill:none;fill-rule:evenodd;stroke-linecap:square;stroke-miterlimit:3"
   inkscape:version="0.92.5 (2060ec1f9f, 2020-04-08)"><metadata
   id="metadata62"><rdf:RDF><cc:Work
       rdf:about=""><dc:format>image/svg+xml</dc:format><dc:type
         rdf:resource="http://purl.org/dc/dcmitype/StillImage" /></cc:Work></rdf:RDF></metadata><defs
   id="defs60" /><sodipodi:namedview
   pagecolor="#ffffff"
   bordercolor="#666666"
   borderopacity="1"
   objecttolerance="10"
   gridtolerance="10"
   guidetolerance="10"
   inkscape:pageopacity="0"
   inkscape:pageshadow="2"
   inkscape:window-width="640"
   inkscape:window-height="480"
   id="namedview58"
   showgrid="false"
   inkscape:zoom="1.8365233"
   inkscape:cx="30.236153"
   inkscape:cy="18.900351"
   inkscape:window-x="0"
   inkscape:window-y="0"
   inkscape:window-maximized="0"
   inkscape:current-layer="svg56" />
	<style
   type="text/css"
   id="style2">
	<![CDATA[
		.st1 {fill:#773adc;stroke:none;stroke-linecap:butt;stroke-width:0.75}
		.st2 {fill:#b796f9;stroke:none;stroke-linecap:butt;stroke-width:0.75}
		.st3 {fill:#a67af4;stroke:none;stroke-linecap:butt;stroke-width:0.75}
		.st4 {fill:#32bedd;stroke:none;stroke-linecap:butt;stroke-width:0.75}
		.st5 {fill:#50e6ff;stroke:none;stroke-linecap:butt;stroke-width:0.75}
		.st6 {fill:none;fill-rule:evenodd;font-size:12px;overflow:visible;stroke-linecap:square;stroke-miterlimit:3}
	]]>
	</style>

	<g
   id="g54"
   transform="translate(-4.5355124,-5.6705)">
		<title
   id="title4">Page-1</title>
		<g
   id="group7418-1"
   transform="translate(4.53543,-34.0157)">
			<title
   id="title6">Azure Token</title>
			<g
   id="shape7419-2"
   transform="translate(17.5918,-12.0429)">
				<title
   id="title8">Sheet.7419</title>
				<path
   d="M 17.6,62.92 V 85.19 L 0,96.38 v -22.3 z"
   class="st1"
   id="path10"
   inkscape:connector-curvature="0"
   style="fill:#773adc;stroke:none;stroke-width:0.75;stroke-linecap:butt" />
			</g>
			<g
   id="shape7420-4"
   transform="translate(0.0292807,-34.3138)">
				<title
   id="title13">Sheet.7420</title>
				<path
   d="M 35.16,85.19 17.57,96.38 0,85.19 17.57,74 Z"
   class="st2"
   id="path15"
   inkscape:connector-curvature="0"
   style="fill:#b796f9;stroke:none;stroke-width:0.75;stroke-linecap:butt" />
			</g>
			<g
   id="shape7421-6"
   transform="translate(0,-12.0429)">
				<title
   id="title18">Sheet.7421</title>
				<path
   d="M 17.59,74.11 V 96.38 L 0,85.19 V 62.92 l 17.6,11.19 z"
   class="st3"
   id="path20"
   inkscape:connector-curvature="0"
   style="fill:#a67af4;stroke:none;stroke-width:0.75;stroke-linecap:butt" />
			</g>
			<g
   id="shape7422-8"
   transform="translate(11.9904,-5.33367)">
				<title
   id="title23">Sheet.7422</title>
				<path
   d="m 18.47,86.44 c 0,0.1 -0.02,0.21 -0.04,0.32 -0.02,0.11 -0.04,0.17 -0.06,0.25 l -0.08,0.31 c -0.02,0.1 -0.05,0.15 -0.09,0.24 l -0.14,0.32 a 4.19885,4.56626 0 0 1 -0.23,0.42 l -0.05,0.07 a 4.48287,4.87513 0 0 1 -0.29,0.41 l -0.06,0.08 -0.39,0.41 a 3.01591,3.27981 0 0 1 -0.29,0.26 l -0.26,0.22 -0.34,0.24 -0.35,0.25 a 9.72704,10.5782 0 0 1 -0.88,0.48 l -0.29,0.12 -0.73,0.3 -0.29,0.09 -0.48,0.15 -0.36,0.11 -0.52,0.12 -0.35,0.07 -1.05,0.16 c -0.11,0 -0.22,0.02 -0.33,0.04 L 9.9,91.92 H 8.63 L 8.16,91.9 7.29,91.79 6.88,91.73 6.39,91.63 6.01,91.54 5.42,91.39 5.11,91.3 4.11,90.93 3.64,90.72 3.41,90.6 2.73,90.22 A 4.6322,5.03753 0 0 1 0,86.08 v 4.48 a 4.6322,5.03753 -180 0 0 2.73,4.14 l 0.68,0.38 c 0.07,0.04 0.16,0.08 0.24,0.12 l 0.41,0.19 0.05,0.02 1.07,0.39 c 0.08,0.03 0.16,0.05 0.24,0.07 l 0.58,0.15 0.15,0.04 0.24,0.05 0.49,0.09 0.19,0.03 c 0.08,0 0.15,0.02 0.22,0.04 l 0.46,0.05 c 0.08,0 0.15,0.02 0.22,0.03 h 0.21 l 0.47,0.03 h 1.33 c 0.21,-0.01 0.42,-0.03 0.63,-0.05 h 0.33 l 1.05,-0.16 h 0.05 l 0.29,-0.06 0.52,-0.12 0.36,-0.11 0.48,-0.15 0.1,-0.03 c 0.06,-0.02 0.11,-0.04 0.16,-0.06 l 0.73,-0.3 0.3,-0.12 0.88,-0.48 0.11,-0.08 c 0.09,-0.05 0.16,-0.11 0.24,-0.17 l 0.33,-0.24 0.26,-0.22 0.29,-0.26 0.06,-0.05 c 0.12,-0.12 0.23,-0.24 0.33,-0.36 l 0.06,-0.08 0.18,-0.22 a 1.99109,2.16531 -180 0 0 0.12,-0.19 l 0.05,-0.06 0.2,-0.36 0.03,-0.07 a 3.15938,3.43584 -180 0 0 0.14,-0.32 l 0.08,-0.18 0.01,-0.07 a 2.95735,3.21612 -180 0 0 0.08,-0.3 l 0.05,-0.2 v -0.06 a 3.19159,3.47086 -180 0 0 0.04,-0.31 c 0.01,-0.11 0.02,-0.14 0.02,-0.21 v -4.61 l -0.04,0.32 z"
   class="st4"
   id="path25"
   inkscape:connector-curvature="0"
   style="fill:#32bedd;stroke:none;stroke-width:0.75;stroke-linecap:butt" />
			</g>
			<g
   id="shape7423-10"
   transform="translate(11.071,-9.78585)">
				<title
   id="title28">Sheet.7423</title>
				<path
   d="m 16.68,86.43 c 3.62,2.28 3.64,5.97 0.04,8.24 a 14.4207,15.6826 0 0 1 -13.08,0 C 0.01,92.39 0,88.7 3.6,86.43 a 14.4061,15.6667 0 0 1 13.08,0 z"
   class="st5"
   id="path30"
   inkscape:connector-curvature="0"
   style="fill:#50e6ff;stroke:none;stroke-width:0.75;stroke-linecap:butt" />
			</g>
			<g
   id="shape7424-12"
   transform="translate(26.8094)">
				<title
   id="title33">Sheet.7424</title>
				<path
   d="m 18.51,86.44 c 0,0.1 -0.02,0.21 -0.03,0.32 -0.02,0.1 -0.04,0.17 -0.06,0.25 l -0.08,0.3 c -0.03,0.1 -0.06,0.16 -0.1,0.25 l -0.13,0.32 c -0.05,0.1 -0.15,0.31 -0.23,0.42 l -0.05,0.07 -0.29,0.41 -0.06,0.08 -0.39,0.41 a 4.27498,4.64905 0 0 1 -0.29,0.26 l -0.26,0.22 c -0.09,0.07 -0.22,0.16 -0.33,0.24 l -0.35,0.24 a 9.01259,9.80121 0 0 1 -0.88,0.48 l -0.3,0.13 -0.72,0.3 -0.27,0.1 -0.47,0.14 -0.37,0.11 -0.51,0.12 -0.35,0.07 -1.05,0.16 -0.33,0.04 -0.63,0.04 H 8.65 c -0.16,0 -0.31,0 -0.47,-0.03 C 8.03,91.86 7.89,91.87 7.75,91.85 L 7.29,91.79 6.88,91.73 6.39,91.63 6.01,91.55 5.42,91.4 5.11,91.3 4.11,90.94 3.64,90.72 3.41,90.61 2.73,90.23 A 4.62927,5.03435 0 0 1 0,86.09 v 4.47 a 4.6322,5.03753 -180 0 0 2.73,4.14 l 0.68,0.38 0.23,0.11 0.42,0.2 0.05,0.02 c 0.32,0.14 0.65,0.26 1,0.36 l 0.08,0.03 0.23,0.07 0.59,0.16 c 0.05,0 0.1,0.03 0.15,0.04 l 0.23,0.04 0.49,0.1 c 0.07,0 0.13,0.03 0.2,0.03 l 0.22,0.03 0.46,0.06 0.22,0.02 h 0.2 c 0.16,0 0.31,0.02 0.47,0.03 h 1.33 c 0.21,0 0.42,-0.03 0.63,-0.05 0.08,0 0.17,0 0.25,-0.02 h 0.08 l 1.05,-0.15 h 0.05 l 0.3,-0.08 0.51,-0.11 0.36,-0.11 0.48,-0.15 0.1,-0.03 0.16,-0.06 0.73,-0.31 0.29,-0.12 a 9.72704,10.5782 -180 0 0 0.88,-0.48 l 0.12,-0.07 c 0.08,-0.05 0.15,-0.12 0.23,-0.17 l 0.33,-0.24 0.26,-0.23 0.3,-0.25 0.05,-0.06 a 4.4858,4.87832 -180 0 0 0.34,-0.36 l 0.06,-0.08 0.17,-0.22 0.13,-0.19 0.04,-0.06 0.21,-0.32 0.03,-0.08 c 0.05,-0.1 0.09,-0.2 0.14,-0.31 l 0.08,-0.19 v -0.06 c 0.02,-0.1 0.05,-0.2 0.07,-0.3 l 0.06,-0.21 v -0.05 c 0.02,-0.11 0.03,-0.21 0.03,-0.32 0.01,-0.11 0.02,-0.14 0.02,-0.21 v -4.54 c 0.02,0.08 0.01,0.18 0,0.28 z"
   class="st4"
   id="path35"
   inkscape:connector-curvature="0"
   style="fill:#32bedd;stroke:none;stroke-width:0.75;stroke-linecap:butt" />
			</g>
			<g
   id="shape7425-14"
   transform="translate(25.8988,-4.43471)">
				<title
   id="title38">Sheet.7425</title>
				<path
   d="m 16.68,86.43 a 4.00267,4.35291 0 0 1 0.04,8.24 14.409,15.6698 0 0 1 -13.08,0 C 0.02,92.39 0,88.7 3.6,86.43 a 14.4119,15.673 0 0 1 13.08,0 z"
   class="st5"
   id="path40"
   inkscape:connector-curvature="0"
   style="fill:#50e6ff;stroke:none;stroke-width:0.75;stroke-linecap:butt" />
			</g>
			<g
   id="shape7426-16"
   transform="translate(26.7655,-9.75345)">
				<title
   id="title43">Sheet.7426</title>
				<path
   d="m 18.57,86.15 c 0,0.09 -0.01,0.19 -0.02,0.29 l -0.03,0.32 c -0.02,0.1 -0.04,0.17 -0.06,0.25 l -0.08,0.3 c -0.03,0.1 -0.06,0.16 -0.09,0.25 l -0.14,0.32 c -0.05,0.1 -0.14,0.31 -0.23,0.42 l -0.04,0.07 -0.3,0.41 -0.06,0.08 a 6.03182,6.55962 0 0 1 -0.38,0.41 4.27498,4.64905 0 0 1 -0.3,0.26 l -0.26,0.22 -0.33,0.24 -0.35,0.25 a 9.34346,10.161 0 0 1 -0.88,0.48 l -0.29,0.12 -0.74,0.3 -0.29,0.1 -0.48,0.15 -0.36,0.1 -0.51,0.12 -0.35,0.08 -1.06,0.16 -0.33,0.03 -0.62,0.04 H 8.66 c -0.16,0 -0.32,0 -0.47,-0.03 C 8.03,91.86 7.9,91.87 7.76,91.85 L 7.3,91.8 6.89,91.73 6.4,91.64 6.02,91.55 5.43,91.39 5.12,91.3 C 4.78,91.19 4.44,91.07 4.12,90.94 L 3.65,90.72 3.41,90.61 2.73,90.23 A 4.63513,5.04071 0 0 1 0,86.09 v 4.47 a 4.63513,5.04071 -180 0 0 2.73,4.14 l 0.68,0.39 0.24,0.11 0.41,0.19 0.05,0.02 1,0.37 0.08,0.03 0.23,0.06 0.59,0.15 c 0.05,0 0.1,0.04 0.15,0.05 l 0.23,0.04 0.49,0.1 c 0.07,0 0.13,0.03 0.2,0.03 l 0.22,0.03 0.46,0.06 0.22,0.02 h 0.2 c 0.16,0 0.31,0.02 0.47,0.03 h 1.33 c 0.21,0 0.42,-0.03 0.63,-0.05 0.08,0 0.17,0 0.25,-0.02 h 0.08 l 1.05,-0.15 h 0.05 l 0.3,-0.08 0.51,-0.11 0.36,-0.11 0.48,-0.15 0.1,-0.03 c 0.06,-0.02 0.11,-0.05 0.16,-0.06 l 0.73,-0.3 0.3,-0.13 a 9.36981,10.1897 -180 0 0 0.88,-0.48 l 0.11,-0.07 0.24,-0.18 0.33,-0.23 0.26,-0.23 0.29,-0.25 0.06,-0.06 a 5.12412,5.57249 -180 0 0 0.34,-0.36 l 0.05,-0.08 0.18,-0.23 0.13,-0.18 0.04,-0.06 a 3.45512,3.75745 -180 0 0 0.2,-0.35 l 0.04,-0.08 c 0.05,-0.1 0.09,-0.21 0.13,-0.32 l 0.08,-0.18 v -0.06 a 3.01591,3.27981 -180 0 0 0.08,-0.31 l 0.06,-0.2 v -0.05 c 0.02,-0.11 0.02,-0.21 0.03,-0.32 0,-0.1 0.02,-0.14 0.02,-0.2 v -0.09 z"
   class="st4"
   id="path45"
   inkscape:connector-curvature="0"
   style="fill:#32bedd;stroke:none;stroke-width:0.75;stroke-linecap:butt" />
			</g>
			<g
   id="shape7427-18"
   transform="rotate(-89.838,15.730996,65.930982)">
				<title
   id="title48">Sheet.7427</title>
				<ellipse
   cx="5.3583598"
   cy="86.318802"
   rx="5.3583598"
   ry="10.0591"
   class="st5"
   id="ellipse50"
   style="fill:#50e6ff;stroke:none;stroke-width:0.75;stroke-linecap:butt" />
			</g>
		</g>
	</g>
</svg>

<?xml version="1.0" encoding="UTF-8" standalone="no"?>
<!DOCTYPE svg PUBLIC "-//W3C//DTD SVG 1.1//EN" "http://www.w3.org/Graphics/SVG/1.1/DTD/svg11.dtd">
<!-- Generated by Microsoft Visio, SVG Export Azure Token.svg Page-1 -->
<svg xmlns="http://www.w3.org/2000/svg" xmlns:xlink="http://www.w3.org/1999/xlink" xmlns:ev="http://www.w3.org/2001/xml-events"
		width="0.755906in" height="1.33858in" viewBox="0 0 54.4252 96.378" xml:space="preserve" color-interpolation-filters="sRGB"
		class="st6">
	<style type="text/css">
	<![CDATA[
		.st1 {fill:#773adc;stroke:none;stroke-linecap:butt;stroke-width:0.75}
		.st2 {fill:#b796f9;stroke:none;stroke-linecap:butt;stroke-width:0.75}
		.st3 {fill:#a67af4;stroke:none;stroke-linecap:butt;stroke-width:0.75}
		.st4 {fill:#32bedd;stroke:none;stroke-linecap:butt;stroke-width:0.75}
		.st5 {fill:#50e6ff;stroke:none;stroke-linecap:butt;stroke-width:0.75}
		.st6 {fill:none;fill-rule:evenodd;font-size:12px;overflow:visible;stroke-linecap:square;stroke-miterlimit:3}
	]]>
	</style>

	<g>
		<title>Page-1</title>
		<g id="group7245-1" transform="translate(4.53543,-34.0157)">
			<title>Azure Token</title>
			<g id="shape7246-2" transform="translate(17.5918,-12.0429)">
				<title>Sheet.7246</title>
				<path d="M17.6 62.92 L17.6 85.19 L0 96.38 L0 74.08 L17.6 62.92 L17.6 62.92 Z" class="st1"/>
			</g>
			<g id="shape7247-4" transform="translate(0.0292807,-34.3138)">
				<title>Sheet.7247</title>
				<path d="M35.16 85.19 L17.57 96.38 L0 85.19 L17.57 74 L35.16 85.19 L35.16 85.19 Z" class="st2"/>
			</g>
			<g id="shape7248-6" transform="translate(0,-12.0429)">
				<title>Sheet.7248</title>
				<path d="M17.59 74.11 L17.59 96.38 L0 85.19 L0 62.92 L17.6 74.11 L17.59 74.11 Z" class="st3"/>
			</g>
			<g id="shape7249-8" transform="translate(11.9904,-5.33367)">
				<title>Sheet.7249</title>
				<path d="M18.47 86.44 C18.47 86.54 18.45 86.65 18.43 86.76 C18.41 86.87 18.39 86.93 18.37 87.01 L18.29 87.32 C18.27
							 87.42 18.24 87.47 18.2 87.56 L18.06 87.88 A4.19885 4.56626 0 0 1 17.83 88.3 L17.78 88.37 A4.48287 4.87513
							 0 0 1 17.49 88.78 L17.43 88.86 L17.04 89.27 A3.01591 3.27981 0 0 1 16.75 89.53 L16.49 89.75 L16.15 89.99
							 L15.8 90.24 A9.72704 10.5782 0 0 1 14.92 90.72 L14.63 90.84 L13.9 91.14 L13.61 91.23 L13.13 91.38 L12.77
							 91.49 L12.25 91.61 L11.9 91.68 L10.85 91.84 C10.74 91.84 10.63 91.86 10.52 91.88 L9.9 91.92 L8.63 91.92
							 L8.16 91.9 L7.29 91.79 L6.88 91.73 L6.39 91.63 L6.01 91.54 L5.42 91.39 L5.11 91.3 L4.11 90.93 L3.64
							 90.72 L3.41 90.6 L2.73 90.22 A4.6322 5.03753 0 0 1 0 86.08 L0 90.56 A4.6322 5.03753 -180 0 0 2.73 94.7
							 L3.41 95.08 C3.48 95.12 3.57 95.16 3.65 95.2 L4.06 95.39 L4.11 95.41 L5.18 95.8 C5.26 95.83 5.34 95.85
							 5.42 95.87 L6 96.02 L6.15 96.06 L6.39 96.11 L6.88 96.2 L7.07 96.23 C7.15 96.23 7.22 96.25 7.29 96.27
							 L7.75 96.32 C7.83 96.32 7.9 96.34 7.97 96.35 L8.18 96.35 L8.65 96.38 L9.98 96.38 C10.19 96.37 10.4 96.35
							 10.61 96.33 L10.94 96.33 L11.99 96.17 L12.04 96.17 L12.33 96.11 L12.85 95.99 L13.21 95.88 L13.69 95.73
							 L13.79 95.7 C13.85 95.68 13.9 95.66 13.95 95.64 L14.68 95.34 L14.98 95.22 L15.86 94.74 L15.97 94.66
							 C16.06 94.61 16.13 94.55 16.21 94.49 L16.54 94.25 L16.8 94.03 L17.09 93.77 L17.15 93.72 C17.27 93.6
							 17.38 93.48 17.48 93.36 L17.54 93.28 L17.72 93.06 A1.99109 2.16531 -180 0 0 17.84 92.87 L17.89 92.81
							 L18.09 92.45 L18.12 92.38 A3.15938 3.43584 -180 0 0 18.26 92.06 L18.34 91.88 L18.35 91.81 A2.95735 3.21612
							 -180 0 0 18.43 91.51 L18.48 91.31 L18.48 91.25 A3.19159 3.47086 -180 0 0 18.52 90.94 C18.53 90.83 18.54
							 90.8 18.54 90.73 L18.54 86.12 L18.5 86.44 L18.47 86.44 Z" class="st4"/>
			</g>
			<g id="shape7250-10" transform="translate(11.071,-9.78585)">
				<title>Sheet.7250</title>
				<path d="M16.68 86.43 C20.3 88.71 20.32 92.4 16.72 94.67 A14.4207 15.6826 0 0 1 3.64 94.67 C0.01 92.39 0 88.7 3.6
							 86.43 A14.4061 15.6667 0 0 1 16.68 86.43 Z" class="st5"/>
			</g>
			<g id="shape7251-12" transform="translate(26.8094,1.42109E-14)">
				<title>Sheet.7251</title>
				<path d="M18.51 86.44 C18.51 86.54 18.49 86.65 18.48 86.76 C18.46 86.86 18.44 86.93 18.42 87.01 L18.34 87.31 C18.31
							 87.41 18.28 87.47 18.24 87.56 L18.11 87.88 C18.06 87.98 17.96 88.19 17.88 88.3 L17.83 88.37 L17.54 88.78
							 L17.48 88.86 L17.09 89.27 A4.27498 4.64905 0 0 1 16.8 89.53 L16.54 89.75 C16.45 89.82 16.32 89.91 16.21
							 89.99 L15.86 90.23 A9.01259 9.80121 0 0 1 14.98 90.71 L14.68 90.84 L13.96 91.14 L13.69 91.24 L13.22
							 91.38 L12.85 91.49 L12.34 91.61 L11.99 91.68 L10.94 91.84 L10.61 91.88 L9.98 91.92 L8.65 91.92 C8.49
							 91.92 8.34 91.92 8.18 91.89 C8.03 91.86 7.89 91.87 7.75 91.85 L7.29 91.79 L6.88 91.73 L6.39 91.63 L6.01
							 91.55 L5.42 91.4 L5.11 91.3 L4.11 90.94 L3.64 90.72 L3.41 90.61 L2.73 90.23 A4.62927 5.03435 0 0 1 0
							 86.09 L0 90.56 A4.6322 5.03753 -180 0 0 2.73 94.7 L3.41 95.08 L3.64 95.19 L4.06 95.39 L4.11 95.41 C4.43
							 95.55 4.76 95.67 5.11 95.77 L5.19 95.8 L5.42 95.87 L6.01 96.03 C6.06 96.03 6.11 96.06 6.16 96.07 L6.39
							 96.11 L6.88 96.21 C6.95 96.21 7.01 96.24 7.08 96.24 L7.3 96.27 L7.76 96.33 L7.98 96.35 L8.18 96.35 C8.34
							 96.35 8.49 96.37 8.65 96.38 L9.98 96.38 C10.19 96.38 10.4 96.35 10.61 96.33 C10.69 96.33 10.78 96.33
							 10.86 96.31 L10.94 96.31 L11.99 96.16 L12.04 96.16 L12.34 96.08 L12.85 95.97 L13.21 95.86 L13.69 95.71
							 L13.79 95.68 L13.95 95.62 L14.68 95.31 L14.97 95.19 A9.72704 10.5782 -180 0 0 15.85 94.71 L15.97 94.64
							 C16.05 94.59 16.12 94.52 16.2 94.47 L16.53 94.23 L16.79 94 L17.09 93.75 L17.14 93.69 A4.4858 4.87832
							 -180 0 0 17.48 93.33 L17.54 93.25 L17.71 93.03 L17.84 92.84 L17.88 92.78 L18.09 92.46 L18.12 92.38 C18.17
							 92.28 18.21 92.18 18.26 92.07 L18.34 91.88 L18.34 91.82 C18.36 91.72 18.39 91.62 18.41 91.52 L18.47
							 91.31 L18.47 91.26 C18.49 91.15 18.5 91.05 18.5 90.94 C18.51 90.83 18.52 90.8 18.52 90.73 L18.52 86.19
							 C18.54 86.27 18.53 86.37 18.52 86.47 L18.51 86.44 Z" class="st4"/>
			</g>
			<g id="shape7252-14" transform="translate(25.8988,-4.43471)">
				<title>Sheet.7252</title>
				<path d="M16.68 86.43 A4.00267 4.35291 0 0 1 16.72 94.67 A14.409 15.6698 0 0 1 3.64 94.67 C0.02 92.39 0 88.7 3.6
							 86.43 A14.4119 15.673 0 0 1 16.68 86.43 Z" class="st5"/>
			</g>
			<g id="shape7253-16" transform="translate(26.7655,-9.75345)">
				<title>Sheet.7253</title>
				<path d="M18.57 86.15 C18.57 86.24 18.56 86.34 18.55 86.44 L18.52 86.76 C18.5 86.86 18.48 86.93 18.46 87.01 L18.38
							 87.31 C18.35 87.41 18.32 87.47 18.29 87.56 L18.15 87.88 C18.1 87.98 18.01 88.19 17.92 88.3 L17.88 88.37
							 L17.58 88.78 L17.52 88.86 A6.03182 6.55962 0 0 1 17.14 89.27 A4.27498 4.64905 0 0 1 16.84 89.53 L16.58
							 89.75 L16.25 89.99 L15.9 90.24 A9.34346 10.161 0 0 1 15.02 90.72 L14.73 90.84 L13.99 91.14 L13.7 91.24
							 L13.22 91.39 L12.86 91.49 L12.35 91.61 L12 91.69 L10.94 91.85 L10.61 91.88 L9.99 91.92 L8.66 91.92 C8.5
							 91.92 8.34 91.92 8.19 91.89 C8.03 91.86 7.9 91.87 7.76 91.85 L7.3 91.8 L6.89 91.73 L6.4 91.64 L6.02
							 91.55 L5.43 91.39 L5.12 91.3 C4.78 91.19 4.44 91.07 4.12 90.94 L3.65 90.72 L3.41 90.61 L2.73 90.23 A4.63513
							 5.04071 0 0 1 -0 86.09 L0 90.56 A4.63513 5.04071 -180 0 0 2.73 94.7 L3.41 95.09 L3.65 95.2 L4.06 95.39
							 L4.11 95.41 L5.11 95.78 L5.19 95.81 L5.42 95.87 L6.01 96.02 C6.06 96.02 6.11 96.06 6.16 96.07 L6.39
							 96.11 L6.88 96.21 C6.95 96.21 7.01 96.24 7.08 96.24 L7.3 96.27 L7.76 96.33 L7.98 96.35 L8.18 96.35 C8.34
							 96.35 8.49 96.37 8.65 96.38 L9.98 96.38 C10.19 96.38 10.4 96.35 10.61 96.33 C10.69 96.33 10.78 96.33
							 10.86 96.31 L10.94 96.31 L11.99 96.16 L12.04 96.16 L12.34 96.08 L12.85 95.97 L13.21 95.86 L13.69 95.71
							 L13.79 95.68 C13.85 95.66 13.9 95.63 13.95 95.62 L14.68 95.32 L14.98 95.19 A9.36981 10.1897 -180 0 0
							 15.86 94.71 L15.97 94.64 L16.21 94.46 L16.54 94.23 L16.8 94 L17.09 93.75 L17.15 93.69 A5.12412 5.57249
							 -180 0 0 17.49 93.33 L17.54 93.25 L17.72 93.02 L17.85 92.84 L17.89 92.78 A3.45512 3.75745 -180 0 0 18.09
							 92.43 L18.13 92.35 C18.18 92.25 18.22 92.14 18.26 92.03 L18.34 91.85 L18.34 91.79 A3.01591 3.27981 -180
							 0 0 18.42 91.48 L18.48 91.28 L18.48 91.23 C18.5 91.12 18.5 91.02 18.51 90.91 C18.51 90.81 18.53 90.77
							 18.53 90.71 L18.53 90.62 L18.57 86.15 Z" class="st4"/>
			</g>
			<g id="shape7254-18" transform="translate(-50.2442,81.4755) rotate(-89.838)">
				<title>Sheet.7254</title>
				<ellipse cx="5.35836" cy="86.3188" rx="5.35836" ry="10.0591" class="st5"/>
			</g>
		</g>
	</g>
</svg>
